packages/elements/bolt-icon/src/svgs/text-align-left.svg

<svg enable-background="new 0 0 32 32" viewBox="0 0 32 32" xmlns="http://www.w3.org/2000/svg"><g clip-rule="evenodd" fill="#151619" fill-rule="evenodd" transform="translate(2 5)"><path d="m-.4 9.4h22.4c.9 0 1.6-.7 1.6-1.6s-.7-1.6-1.6-1.6h-22.4c-.9 0-1.6.7-1.6 1.6s.7 1.6 1.6 1.6"/><path d="m-.4 3h28.8c.9 0 1.6-.7 1.6-1.6s-.7-1.6-1.6-1.6h-28.8c-.9 0-1.6.7-1.6 1.6s.7 1.6 1.6 1.6"/><path d="m28.4 12.6h-28.8c-.9 0-1.6.7-1.6 1.6s.7 1.6 1.6 1.6h28.8c.9 0 1.6-.7 1.6-1.6s-.7-1.6-1.6-1.6"/><path d="m22 19h-22.4c-.9 0-1.6.7-1.6 1.6s.7 1.6 1.6 1.6h22.4c.9 0 1.6-.7 1.6-1.6s-.7-1.6-1.6-1.6"/></g></svg>

<?xml version="1.0" encoding="utf-8"?>
<!-- Generator: Adobe Illustrator 25.2.0, SVG Export Plug-In . SVG Version: 6.00 Build 0)  -->
<svg version="1.1" id="Layer_1" xmlns="http://www.w3.org/2000/svg" xmlns:xlink="http://www.w3.org/1999/xlink" x="0px" y="0px"
	 viewBox="0 0 32 32" style="enable-background:new 0 0 32 32;" xml:space="preserve">
<style type="text/css">
	.st0{fill-rule:evenodd;clip-rule:evenodd;fill:#151619;}
</style>
<g transform="translate(2 5)">
	<path class="st0" d="M-0.4,9.4H22c0.9,0,1.6-0.7,1.6-1.6S22.9,6.2,22,6.2H-0.4C-1.3,6.2-2,6.9-2,7.8S-1.3,9.4-0.4,9.4"/>
	<path class="st0" d="M-0.4,3h28.8C29.3,3,30,2.3,30,1.4s-0.7-1.6-1.6-1.6H-0.4C-1.3-0.2-2,0.5-2,1.4S-1.3,3-0.4,3"/>
	<path class="st0" d="M28.4,12.6H-0.4c-0.9,0-1.6,0.7-1.6,1.6s0.7,1.6,1.6,1.6h28.8c0.9,0,1.6-0.7,1.6-1.6S29.3,12.6,28.4,12.6"/>
	<path class="st0" d="M22,19H-0.4C-1.3,19-2,19.7-2,20.6c0,0.9,0.7,1.6,1.6,1.6H22c0.9,0,1.6-0.7,1.6-1.6C23.6,19.7,22.9,19,22,19"
		/>
</g>
</svg>
